public/images/hashed/3f10d40a8fbfb733ef18e72e912c8f1b.svg

<?xml version="1.0" encoding="UTF-8"?>
<svg width="80px" height="80px" viewBox="0 0 80 80" version="1.1" xmlns="http://www.w3.org/2000/svg" xmlns:xlink="http://www.w3.org/1999/xlink">
    <!-- Generator: Sketch 64 (93537) - https://sketch.com -->
    <title>Icon-Architecture/64/Arch_AWS-Organizations_64</title>
    <desc>Created with Sketch.</desc>
    <defs>
        <linearGradient x1="0%" y1="100%" x2="100%" y2="0%" id="linearGradient-1">
            <stop stop-color="#B0084D" offset="0%"></stop>
            <stop stop-color="#FF4F8B" offset="100%"></stop>
        </linearGradient>
    </defs>
    <g id="Icon-Architecture/64/Arch_AWS-Organizations_64" stroke="none" stroke-width="1" fill="none" fill-rule="evenodd">
        <g id="Icon-Architecture-BG/64/Management-Governance" fill="url(#linearGradient-1)">
            <rect id="Rectangle" x="0" y="0" width="80" height="80"></rect>
        </g>
        <path d="M55,63.00001 L63,63.00001 L63,55.00005 L55,55.00005 L55,63.00001 Z M36,63.00001 L44,63.00001 L44,55.00005 L36,55.00005 L36,63.00001 Z M17,63.00001 L25,63.00001 L25,55.00005 L17,55.00005 L17,63.00001 Z M64,53.00006 L60,53.00006 L60,48.000085 C60,47.4480878 59.552,47.00009 59,47.00009 L41,47.00009 L41,44.000105 L39,44.000105 L39,47.00009 L21,47.00009 C20.447,47.00009 20,47.4480878 20,48.000085 L20,53.00006 L16,53.00006 C15.447,53.00006 15,53.4480578 15,54.000055 L15,64.000005 C15,64.5520022 15.447,65 16,65 L26,65 C26.552,65 27,64.5520022 27,64.000005 L27,54.000055 C27,53.4480578 26.552,53.00006 26,53.00006 L22,53.00006 L22,49.00008 L39,49.00008 L39,53.00006 L35,53.00006 C34.447,53.00006 34,53.4480578 34,54.000055 L34,64.000005 C34,64.5520022 34.447,65 35,65 L45,65 C45.552,65 46,64.5520022 46,64.000005 L46,54.000055 C46,53.4480578 45.552,53.00006 45,53.00006 L41,53.00006 L41,49.00008 L58,49.00008 L58,53.00006 L54,53.00006 C53.447,53.00006 53,53.4480578 53,54.000055 L53,64.000005 C53,64.5520022 53.447,65 54,65 L64,65 C64.552,65 65,64.5520022 65,64.000005 L65,54.000055 C65,53.4480578 64.552,53.00006 64,53.00006 L64,53.00006 Z M40,17.1552392 L49,22.3512132 L40,27.5471873 L31,22.3512132 L40,17.1552392 Z M41,39.6711266 L41,29.2791786 L50,24.0832046 L50,34.4761526 L41,39.6711266 Z M30,24.0832046 L39,29.2791786 L39,39.6711266 L30,34.4761526 L30,24.0832046 Z M28.5,35.9191454 L39.5,42.2701136 C39.654,42.3591132 39.827,42.403113 40,42.403113 C40.172,42.403113 40.345,42.3591132 40.5,42.2701136 L51.5,35.9191454 C51.809,35.7401463 52,35.4101479 52,35.0531497 L52,22.3512132 C52,21.994215 51.809,21.6642167 51.5,21.4852176 L40.5,15.1342493 C40.191,14.9552502 39.808,14.9552502 39.5,15.1342493 L28.5,21.4852176 C28.19,21.6642167 28,21.994215 28,22.3512132 L28,35.0531497 C28,35.4101479 28.19,35.7401463 28.5,35.9191454 L28.5,35.9191454 Z" id="AWS-Organizations_Icon_64_Squid" fill="#FFFFFF"></path>
    </g>
</svg>

<svg xmlns="http://www.w3.org/2000/svg" width="80" height="80"><defs><linearGradient id="a" x1="0%" x2="100%" y1="100%" y2="0%"><stop offset="0%" stop-color="#B0084D"/><stop offset="100%" stop-color="#FF4F8B"/></linearGradient></defs><g fill="none" fill-rule="evenodd"><path fill="url(#a)" d="M0 0h80v80H0z"/><path fill="#FFF" d="M55 63h8v-8h-8v8Zm-19 0h8v-8h-8v8Zm-19 0h8v-8h-8v8Zm47-10h-4v-5a1 1 0 0 0-1-1H41v-3h-2v3H21a1 1 0 0 0-1 1v5h-4a1 1 0 0 0-1 1v10a1 1 0 0 0 1 1h10a1 1 0 0 0 1-1V54a1 1 0 0 0-1-1h-4v-4h17v4h-4a1 1 0 0 0-1 1v10a1 1 0 0 0 1 1h10a1 1 0 0 0 1-1V54a1 1 0 0 0-1-1h-4v-4h17v4h-4a1 1 0 0 0-1 1v10a1 1 0 0 0 1 1h10a1 1 0 0 0 1-1V54a1 1 0 0 0-1-1ZM40 17.155l9 5.196-9 5.196-9-5.196 9-5.196Zm1 22.516V29.28l9-5.196v10.393l-9 5.195ZM30 24.083l9 5.196v10.392l-9-5.195V24.083ZM28.5 35.92l11 6.351a.999.999 0 0 0 1 0l11-6.35c.309-.18.5-.51.5-.867V22.351c0-.357-.191-.687-.5-.866l-11-6.35a.998.998 0 0 0-1 0l-11 6.35a1 1 0 0 0-.5.866v12.702a1 1 0 0 0 .5.866Z"/></g></svg>
